;===== machine: X1 by TS90X - END GCODE ====================
;===== date: 20251014 =====================
M400 ; wait for buffer to clear
G92 E0 ; zero the extruder
G1 E-0.8 F1800 ; retract
G1 Z{max_layer_z + 0.5} F900 ; lower z a little
G1 X65 Y245 F12000 ; move to safe pos
G1 Y265 F3000

G1 X65 Y245 F12000
G1 Y265 F3000
M104 S0 ; turn off hotend
M140 S0 ; turn off bed
;M106 S0 ; turn off fan ; left on to wipe

M106 P2 S0 ; turn off remote part cooling fan
M106 P3 S0 ; turn off chamber cooling fan
M106 S200 ; turn on part cooling fan


; wipe
G1 Y265 F3000
G1 X65 F12000
G1 X100 Y264 F12000
G1 X65 F12000
G1 X100 Y264 F12000
G1 X65 F12000
G1 Y265 F3000

M400 P5000

; wipe
G1 Y265 F3000
G1 X65 F12000
G1 X100 Y264 F12000
G1 X65 F12000
G1 X100 Y264 F12000
G1 X65 F12000
G1 Y265 F3000

; pull back filament to AMS ; disables to save filaments
;M620 S255
;G1 X20 Y50 F12000
;G1 Y-3
;T255
;G1 X65 F12000
;G1 Y265
;M621 S255
;M104 S0 ; turn off hotend


M622.1 S1 ; for prev firmware, default turned on

===== timelapse =========
M1002 judge_flag timelapse_record_flag
M622 J1
    M400 ; wait all motion done
    M991 S0 P-1 ;end smooth timelapse at safe pos
    M400 S3 ;wait for last picture to be taken
M623; end of "timelapse_record_flag"
===== timelapse end =========

; wipe
G1 Y265 F3000
G1 X65 F12000
G1 X100 Y264 F12000
G1 X65 F12000
G1 X100 Y264 F12000
G1 X65 F12000
G1 Y265 F3000

M400 ; wait all motion done
M17 S
M17 Z0.4 ; lower z motor current to reduce impact if there is something in the bottom
{if (max_layer_z + 50.0) < 250}
    G1 Z{max_layer_z + 50.0} F600
;    G1 Z{max_layer_z +98.0}
{else}
    G1 Z256 F600
;    G1 Z248
{endif}
M400 P100

M17 R ; restore z current

M220 S100  ; Reset feedrate magnitude
M201.2 K1.0 ; Reset acc magnitude
M73.2   R1.0 ;Reset left time magnitude
M1002 set_gcode_claim_speed_level : 0

;=====printer finish  sound=========
M17
M400 S1
M1006 S1
M1006 A0 B20 L100 C37 D20 M40 E42 F20 N60
M1006 A0 B10 L100 C44 D10 M60 E44 F10 N60
M1006 A0 B10 L100 C46 D10 M80 E46 F10 N80
M1006 A44 B20 L100 C39 D20 M60 E48 F20 N60
M1006 A0 B10 L100 C44 D10 M60 E44 F10 N60
M1006 A0 B10 L100 C0 D10 M60 E0 F10 N60
M1006 A0 B10 L100 C39 D10 M60 E39 F10 N60
M1006 A0 B10 L100 C0 D10 M60 E0 F10 N60
M1006 A0 B10 L100 C44 D10 M60 E44 F10 N60
M1006 A0 B10 L100 C0 D10 M60 E0 F10 N60
M1006 A0 B10 L100 C39 D10 M60 E39 F10 N60
M1006 A0 B10 L100 C0 D10 M60 E0 F10 N60
M1006 A0 B10 L100 C48 D10 M60 E44 F10 N100
M1006 A0 B10 L100 C0 D10 M60 E0 F10  N100
M1006 A49 B20 L100 C44 D20 M100 E41 F20 N100
M1006 A0 B20 L100 C0 D20 M60 E0 F20 N100
M1006 A0 B20 L100 C37 D20 M30 E37 F20 N60
M1006 W
;=====printer finish  sound end=========

M17 X0.8 Y0.8 Z0.5 ; lower motor current to 45% power
M960 S5 P0 ; turn off logo lamp

M106 S0 ; turn off fan
M18 X Y Z ; disables the steppers
